src/front_assets/svg/search.svg

<svg width="20" height="24" viewBox="0 0 20 22" fill="none" xmlns="http://www.w3.org/2000/svg">
    <path d="M2.47494 3.06556C3.65616 1.8031 5.16093 0.943435 6.79903 0.595239C8.43713 0.247043 10.135 0.42595 11.678 1.10934C13.221 1.79274 14.5399 2.94993 15.4679 4.43464C16.3959 5.91935 16.8914 7.66491 16.8917 9.45065C16.8974 11.6334 16.1579 13.7433 14.812 15.3845L19.5025 20.4006C19.5577 20.4575 19.6018 20.5255 19.6322 20.6008C19.6625 20.676 19.6785 20.757 19.6793 20.839C19.68 20.921 19.6655 21.0023 19.6365 21.0781C19.6075 21.154 19.5646 21.223 19.5104 21.2809C19.4562 21.3389 19.3917 21.3847 19.3207 21.4157C19.2498 21.4467 19.1737 21.4623 19.0971 21.4615C19.0204 21.4607 18.9447 21.4436 18.8743 21.4111C18.8039 21.3787 18.7402 21.3315 18.6871 21.2725L13.9965 16.2573C12.7745 17.3967 11.2716 18.1358 9.66722 18.3865C8.06289 18.6372 6.42498 18.3889 4.9491 17.6711C3.47321 16.9534 2.22175 15.7966 1.34416 14.3389C0.466565 12.8812 -5.37941e-05 11.1842 2.75496e-05 9.45065C-0.00281581 8.26426 0.214462 7.08904 0.639283 5.99303C1.0641 4.89703 1.68803 3.902 2.47494 3.06556ZM3.29038 14.9629C4.3099 16.0519 5.6085 16.7933 7.02203 17.0933C8.43555 17.3934 9.90054 17.2386 11.2318 16.6486C12.5631 16.0586 13.7009 15.0598 14.5014 13.7785C15.3019 12.4973 15.7291 10.991 15.7291 9.45017C15.7291 7.90933 15.3019 6.40307 14.5014 5.1218C13.7009 3.84053 12.5631 2.84177 11.2318 2.25176C9.90054 1.66175 8.43555 1.50698 7.02203 1.80702C5.6085 2.10706 4.3099 2.84843 3.29038 3.93743C1.9249 5.40061 1.15803 7.38319 1.15803 9.45017C1.15803 11.5172 1.9249 13.4997 3.29038 14.9629Z" fill="#666"/>
</svg>

<svg xmlns="http://www.w3.org/2000/svg" width="20" height="24" fill="none" viewBox="0 0 20 22"><path fill="#666" d="M2.475 3.066C3.656 1.803 5.16.943 6.799.596a7.94 7.94 0 0 1 4.879.513c1.543.684 2.862 1.84 3.79 3.326a9.5 9.5 0 0 1 1.424 5.016c.005 2.182-.734 4.292-2.08 5.933l4.69 5.017a.62.62 0 0 1 .177.438.65.65 0 0 1-.169.442.6.6 0 0 1-.19.135.54.54 0 0 1-.633-.143l-4.69-5.016a8.2 8.2 0 0 1-4.33 2.13 7.95 7.95 0 0 1-4.718-.716c-1.476-.718-2.727-1.874-3.605-3.332A9.5 9.5 0 0 1 0 9.45a9.5 9.5 0 0 1 .64-3.458 9 9 0 0 1 1.835-2.927m.815 11.897a7.15 7.15 0 0 0 3.732 2.13 6.85 6.85 0 0 0 4.21-.444 7.4 7.4 0 0 0 3.27-2.87 8.2 8.2 0 0 0 1.227-4.329 8.2 8.2 0 0 0-1.228-4.328 7.4 7.4 0 0 0-3.27-2.87 6.85 6.85 0 0 0-4.209-.445 7.15 7.15 0 0 0-3.732 2.13C1.925 5.401 1.158 7.383 1.158 9.45s.767 4.05 2.132 5.513"/></svg>
